X:1
T:Title
%%score { ( 1 3 ) | 2 }
L:1/8
M:4/4
K:Ab
V:1 treble nm="Grand Piano"
V:3 treble 
V:2 bass 
V:1
 z4 z2[Q:1/4=106] [CA]>[DB] | [Ec]2 [Ec]2 B>A G>F | E6 [CA]>[DB] | [Ec]2 [EA]2 B3 c |[M:3/4] B6 | %5
[M:1/4] e>d |[M:4/4] [Ec]2 [Ec]2 B>A G>F | E6 [CA]>[DB] | [Ec]2 [EA]2 [EB]3 [Ec] |[M:3/4] [CA]6 | %10
[M:1/4] G>A |[M:4/4] B6 z2 | c6 z2 | d6 z2 | e6 z2 | [Ec]2 [Ec]2 B>A G>F | E6 [CA]>[DB] | %17
 [Ec]2 [EA]2 [EB]3 [Ec] |[M:3/4] [CA]6 |] %19
V:2
 z4 z2 [A,,A,]>[A,,A,] | [A,,A,]2 [A,,A,]2 [E,G,D]>[E,A,C] [E,B,D]>[E,G,D] | %2
 [A,C]6 [A,,A,]>[A,,A,] | [A,,A,]2 [C,A,]2 [E,G,E]3 [E,A,E] |[M:3/4] [E,G,E]6 | %5
[M:1/4] [E,CE]>[E,B,E] |[M:4/4] [A,,A,]2 [A,,A,]2 [E,G,D]>[E,A,C] [E,B,D]>[E,G,D] | %7
 [A,C]6 [A,,A,]>[A,,A,] | [A,,A,]2 [C,A,]2 [E,G,]3 [E,G,] |[M:3/4] [A,,A,]6 |[M:1/4] z2 | %11
[M:4/4] z2 [E,G,]>[E,G,] [E,G,]2 z2 | z2 A,>A, A,2 z2 | z2 [E,B,]>[E,B,] [E,B,]2 z2 | %14
 z2 [A,C]>[A,C] [A,C]2 [A,,CE]>[A,,B,] | [A,,A,]2 [A,,A,]2 [E,G,D]>[E,A,C] [E,B,D]>[E,G,D] | %16
 [A,C]6 [A,,A,]>[A,,A,] | [A,,A,]2 [C,A,]2 [E,G,]3 [E,G,] |[M:3/4] [A,,A,]6 |] %19
V:3
 x8 | x8 | x8 | x8 |[M:3/4] x6 |[M:1/4] x2 |[M:4/4] x8 | x8 | x8 |[M:3/4] x6 |[M:1/4] x2 | %11
[M:4/4] z2 E>E E>B A>B | z2 E>E E2 B>c | z2 G>G G>d c>d | z2 A>A A2 e>[Ed] | x8 | x8 | x8 | %18
[M:3/4] x6 |] %19

